3do/_inc/syslogo.svg

<svg width="355" height="103" viewBox="0 0 355 103" fill="none" xmlns="http://www.w3.org/2000/svg">
<path d="M98.736 48.9033V49.1073C107.894 49.2778 114.656 51.0982 119.019 54.5686C123.384 58.036 125.568 62.2325 125.568 67.1519C125.568 72.6422 123.087 77.1765 118.114 80.7443C113.152 84.3228 106.538 86.1098 98.2959 86.1098C91.1711 86.1098 85.668 84.682 81.7698 81.8387C77.8717 78.9954 75.9226 75.761 75.9226 72.1186C75.9226 69.7045 76.7951 67.7455 78.5432 66.2645C80.2882 64.7835 82.385 64.0498 84.8244 64.0498C87.1146 64.0498 89.0834 64.7013 90.7128 65.986C92.3527 67.2859 93.1613 68.9982 93.1613 71.117C93.1613 73.9481 91.2655 76.3211 87.4648 78.2374C86.7217 78.6103 86.338 79.035 86.338 79.5053C86.338 80.3775 87.4008 81.1431 89.5418 81.8068C91.6721 82.4658 93.8435 82.7855 96.0788 82.7855C103.395 82.7855 107.058 77.4109 107.058 66.6603C107.058 56.0161 102.658 50.6949 93.8754 50.6949L86.5801 50.9901C85.1107 50.9901 84.3661 50.4498 84.3661 49.3645C84.3661 48.1195 85.1426 47.4924 86.6867 47.4924L91.9995 47.6948C97.4203 47.6948 101.049 46.4908 102.893 44.0737C104.743 41.6688 105.66 38.241 105.66 33.7934C105.66 29.2149 104.967 25.8403 103.572 23.6896C102.177 21.5282 99.7821 20.4551 96.3955 20.4551C94.5546 20.4551 92.8187 20.7626 91.1985 21.3897C89.5799 22.0077 88.7591 22.615 88.7591 23.2223C88.7591 23.7824 89.2936 24.3715 90.358 24.9773C93.1461 26.7551 94.553 28.6821 94.553 30.7567C94.553 32.8009 93.7765 34.4159 92.2096 35.6321C90.6458 36.833 88.887 37.4403 86.9273 37.4403C84.6706 37.4403 82.6561 36.7478 80.8897 35.3779C79.1203 33.9928 78.2249 32.291 78.2249 30.2347C78.2249 26.7445 80.1969 23.7216 84.1346 21.1766C88.0754 18.6225 93.1217 17.3455 99.2994 17.3455C106.124 17.3455 111.875 18.7915 116.558 21.6789C121.254 24.5633 123.597 28.2544 123.597 32.7796C123.61 41.6764 115.314 47.0555 98.736 48.9033Z" fill="white"/>
<path d="M157.418 20.6576V81.8601H163.414C172.583 81.8601 178.119 79.4551 180.026 74.6544C181.932 69.8445 182.881 61.6267 182.881 49.9932C182.881 40.8925 182.293 34.3459 181.124 30.3732C179.963 26.3959 178.185 23.7764 175.811 22.5328C173.434 21.2862 170.413 20.6591 166.76 20.6591H157.418V20.6576ZM138.902 81.8601V20.6576H129.298V17.3455H167.778C178.908 17.3455 187.723 20.4962 194.208 26.8084C200.692 33.1115 203.94 41.0721 203.94 50.6842C203.94 55.663 202.953 60.3603 200.971 64.7333C198.99 69.1185 195.944 73.111 191.834 76.6955C187.723 80.2832 183.507 82.5922 179.184 83.6257C174.859 84.6577 169.557 85.1722 163.251 85.1722H129.296V81.8601H138.902Z" fill="white"/>
<path d="M257.935 51.5344C257.935 41.1475 257.719 34.301 257.294 31.0042C256.86 27.692 255.75 25.0314 253.962 23.007C252.173 20.9872 249.225 19.975 245.123 19.975C241.664 19.975 238.905 20.7954 236.848 22.424C234.791 24.0618 233.516 26.6814 233.005 30.2903C232.505 33.8962 232.25 40.9451 232.25 51.4294C232.25 61.8056 232.463 68.6824 232.898 72.0357C233.325 75.3889 234.476 78.0617 236.341 80.0526C238.205 82.0435 241.132 83.0329 245.126 83.0329C248.438 83.0329 251.14 82.2368 253.228 80.6371C255.316 79.0298 256.624 76.433 257.147 72.8241C257.679 69.2122 257.935 62.1146 257.935 51.5344ZM211.189 51.2467C211.189 41.1018 214.53 32.8002 221.243 26.3389C227.937 19.8912 235.98 16.6659 245.348 16.6659C254.05 16.6659 261.833 19.6979 268.7 25.7666C275.572 31.8337 279 40.4656 279 51.6546C279 62.1404 275.763 70.547 269.265 76.8699C262.769 83.1897 254.836 86.3526 245.467 86.3526C235.341 86.3526 227.088 82.9872 220.732 76.2839C214.373 69.5744 211.189 61.2317 211.189 51.2467Z" fill="white"/>
<path d="M13.4446 94.5601C13.4446 93.1693 19.8704 92.0411 27.8011 92.0411C35.7317 92.0411 42.1575 93.1693 42.1575 94.5601C42.1575 95.951 35.7317 97.0763 27.8011 97.0763C19.8704 97.0763 13.4446 95.9496 13.4446 94.5601Z" fill="#BABABA"/>
<path d="M15.5979 70.8219C15.5979 64.0654 21.0597 58.5919 27.8009 58.5919C34.5421 58.5919 40.0039 64.0654 40.0039 70.8219C40.0039 77.5755 34.5407 83.0518 27.8009 83.0518C21.0583 83.0504 15.5979 77.5742 15.5979 70.8219Z" fill="url(#paint0_radial)"/>
<path d="M16.4347 38.9295C14.6394 40.1268 14.1609 47.0809 14.1609 47.0809C14.1609 47.0809 14.6394 54.0351 16.4347 55.2324C18.2286 56.431 27.8009 57.1527 27.8009 57.1527C27.8009 57.1527 37.3733 56.4324 39.1658 55.2324C40.9624 54.0351 41.4409 47.0809 41.4409 47.0809C41.4409 47.0809 40.9638 40.1268 39.1658 38.9295C37.3733 37.7294 27.8009 37.0092 27.8009 37.0092C27.8009 37.0092 18.2286 37.7294 16.4347 38.9295Z" fill="#A3A3A3"/>
<path d="M27.8008 7.57642L42.0951 21.9036L27.8008 36.2267L13.5066 21.9036L27.8008 7.57642Z" fill="white"/>
<defs>
<radialGradient id="paint0_radial" cx="0" cy="0" r="1" gradientUnits="userSpaceOnUse" gradientTransform="translate(29.4879 68.4119) scale(14.7354 14.7295)">
<stop offset="0.5225" stop-color="white"/>
<stop offset="0.8933" stop-color="#757575"/>
<stop offset="1" stop-color="#4D4D4D"/>
</radialGradient>
</defs>
</svg>

<svg xmlns="http://www.w3.org/2000/svg" xmlns:xlink="http://www.w3.org/1999/xlink" width="355" height="102.18" viewBox="0 0 355 102.18">
  <defs>
    <radialGradient id="radial-gradient" cx="441.68" cy="708.99" r="1" gradientTransform="matrix(14.74, 0, 0, -14.73, -6478.87, 10511.51)" gradientUnits="userSpaceOnUse">
      <stop offset="0.52" stop-color="#fff"/>
      <stop offset="0.89" stop-color="#757576"/>
      <stop offset="1" stop-color="#4e4d4d"/>
    </radialGradient>
  </defs>
  <g id="Layer_2" data-name="Layer 2">
    <g id="Layer_1-2" data-name="Layer 1">
      <g>
        <rect width="355" height="102.18" style="fill: none"/>
        <path d="M98.74,48.9v.21q13.73.26,20.28,5.46t6.55,12.58q0,8.23-7.46,13.59T98.3,86.11q-10.69,0-16.53-4.27t-5.85-9.72a7.33,7.33,0,0,1,2.62-5.86,9.39,9.39,0,0,1,6.28-2.21A9.22,9.22,0,0,1,90.71,66a6.22,6.22,0,0,1,2.45,5.13c0,2.83-1.89,5.2-5.7,7.12-.74.37-1.12.8-1.12,1.27,0,.87,1.06,1.63,3.2,2.3a21.91,21.91,0,0,0,6.54,1q11,0,11-16.13,0-16-13.18-16l-7.3.29c-1.47,0-2.21-.54-2.21-1.62,0-1.25.77-1.88,2.32-1.88L92,47.7q8.13,0,10.89-3.63t2.77-10.28q0-6.87-2.09-10.1c-1.39-2.16-3.79-3.23-7.17-3.23a14.2,14.2,0,0,0-5.2.93c-1.62.62-2.44,1.23-2.44,1.83s.53,1.15,1.6,1.76c2.79,1.78,4.19,3.7,4.19,5.78a5.82,5.82,0,0,1-2.34,4.87,8.45,8.45,0,0,1-5.28,1.81,9.6,9.6,0,0,1-6-2.06,6.31,6.31,0,0,1-2.67-5.14c0-3.5,2-6.52,5.91-9.06s9-3.83,15.17-3.83q10.23,0,17.26,4.33t7,11.1Q123.62,46.13,98.74,48.9Z" style="fill: #fff"/>
        <path d="M157.42,20.66v61.2h6q13.76,0,16.61-7.21T182.88,50q0-13.65-1.76-19.62c-1.16-4-2.94-6.59-5.31-7.84a19.5,19.5,0,0,0-9.05-1.87ZM138.9,81.86V20.66h-9.6V17.35h38.48q16.69,0,26.43,9.46t9.73,23.87a33.7,33.7,0,0,1-3,14.05,35.08,35.08,0,0,1-9.14,12,30.08,30.08,0,0,1-12.65,6.93,69.86,69.86,0,0,1-15.93,1.54H129.3V81.86Z" style="fill: #fff"/>
        <path d="M257.93,51.54q0-15.58-.64-20.54A14.54,14.54,0,0,0,254,23q-2.69-3-8.84-3a13,13,0,0,0-8.27,2.44c-2.06,1.64-3.33,4.26-3.85,7.87s-.75,10.66-.75,21.14.21,17.25.65,20.61a13.92,13.92,0,0,0,3.44,8c1.87,2,4.79,3,8.78,3a13,13,0,0,0,8.11-2.39c2.09-1.61,3.39-4.21,3.92-7.82S257.93,62.12,257.93,51.54Zm-46.74-.29q0-15.22,10.05-24.91a33.53,33.53,0,0,1,24.11-9.67,34.3,34.3,0,0,1,23.35,9.1Q279,34.86,279,51.65q0,15.74-9.73,25.22a32.85,32.85,0,0,1-23.8,9.48q-15.19,0-24.74-10.07T211.19,51.25Z" style="fill: #fff"/>
        <path d="M13.44,94.56c0-1.39,6.43-2.52,14.36-2.52s14.36,1.13,14.36,2.52-6.43,2.52-14.36,2.52S13.44,96,13.44,94.56Z" style="fill: #b9b9b9"/>
        <path d="M15.6,70.82A12.2,12.2,0,1,1,27.8,83.05,12.22,12.22,0,0,1,15.6,70.82Z" style="fill: url(#radial-gradient)"/>
        <path d="M16.43,38.93c-1.79,1.2-2.27,8.15-2.27,8.15s.48,7,2.27,8.15S27.8,57.15,27.8,57.15s9.57-.72,11.37-1.92,2.27-8.15,2.27-8.15-.48-6.95-2.27-8.15S27.8,37,27.8,37,18.23,37.73,16.43,38.93Z" style="fill: #a2a1a1"/>
        <path d="M27.8,7.58,42.1,21.9,27.8,36.23,13.51,21.9Z" style="fill: #fff"/>
      </g>
    </g>
  </g>
</svg>
